X: 15
T: St. Joan
T: Hunsdon House
P: 
C: 
C: 
N: 
N: 
K: C major
M: 6/8
L: 1/8
P: A
"C"C2G E2A | "C"GE2 "G"D2C | "Am"c2e "G"dB2 | "D7"A3 "G"G3\ "C"C2G E2A | "C"GE2 "G"D2C | "Am"c2e "G"dB2 | "D7"A3 "G"G3 | 
P: B
"Em"g2f eB2 | "Am"c2B Ade | \
"Dm"f2e dB2 | "G7"A3 GAB | "Am"c2B AE2 | "Dm"F2E DAB | "Am"cde "Dm"f2e | "G7"d3 "C"c3 :| 


